X:43
T:Allemand,The. TJD.43
M:3/8
L:1/4
Q:3/8=50
S:T.J.Dixon MS2, Lincolnshire, early 19thC
R:waltz
A:Lincolnshire, Holton le Moor
Z:vmp.R.Greig2010
K:G
gd/|Bd/|c/A/F/|G/B/d/|gd/|Bd/|c/A/F/|G3/:|!
|:”^minim in MS”AD/|AB/|c/B/A/|B/c/d/|AD/|AB/|c/A/F/|G3/:|]

